packages/core/src/svgs/tokens/branded/SPA.svg

<svg width="24" height="24" viewBox="0 0 24 24" fill="none" xmlns="http://www.w3.org/2000/svg">
<path d="M17.7075 13.4276C18.843 13.4247 19.9333 13.8732 20.7383 14.6741C21.5434 15.4752 21.9972 16.5631 22 17.6987C22.0028 18.8344 21.5544 19.9246 20.7534 20.7297C19.9525 21.5347 18.8645 21.9886 17.7288 21.9914H17.7075C16.5718 21.9914 15.4826 21.5403 14.6797 20.7372C13.8766 19.9343 13.4255 18.8451 13.4255 17.7094C13.4255 17.5953 13.4255 17.4883 13.4398 17.3812C13.447 17.1814 13.4613 16.9887 13.4398 16.7817C13.2356 15.1965 12.5075 13.725 11.3708 12.6011C10.2342 11.4775 8.75431 10.7661 7.16681 10.5801C6.95272 10.5588 6.76004 10.5658 6.55308 10.5658L6.28903 10.5729C5.15341 10.5749 4.06353 10.1255 3.25918 9.32389C2.45483 8.52222 2.00189 7.43386 2.00001 6.29822C1.99811 5.1626 2.44742 4.07273 3.24909 3.26838C4.05076 2.46403 5.13912 2.0111 6.27476 2.0092H6.28903C6.88082 2.0092 7.46616 2.13186 8.00816 2.36945C8.55014 2.60703 9.03706 2.95439 9.43803 3.38959C9.83901 3.8248 10.1454 4.33839 10.3381 4.89797C10.5306 5.45756 10.605 6.05098 10.5567 6.64078C10.5495 6.86202 10.5424 7.08324 10.5709 7.31875C10.808 8.90693 11.5688 10.3705 12.7323 11.4771C13.8959 12.5838 15.3957 13.2704 16.9938 13.4276C17.158 13.4419 17.3148 13.4347 17.4719 13.4276H17.7075ZM17.7788 10.5729C18.9144 10.5541 19.9959 10.0847 20.7856 9.26844C21.5752 8.45198 22.0081 7.35536 21.9893 6.21973C21.9703 5.08411 21.5011 4.00251 20.6847 3.21288C19.8684 2.42325 18.7717 1.99027 17.636 2.0092C16.5004 2.02813 15.4189 2.4974 14.6292 3.3138C13.8396 4.13019 13.4067 5.22683 13.4255 6.36247C13.4445 7.49809 13.9137 8.57969 14.7301 9.36935C15.5466 10.159 16.6431 10.5919 17.7788 10.5729ZM6.28903 13.4276C7.42466 13.4276 8.51377 13.8787 9.31681 14.6818C10.1198 15.4847 10.5709 16.5739 10.5709 17.7094C10.5709 18.8451 10.1198 19.9343 9.31681 20.7372C8.51377 21.5403 7.42466 21.9914 6.28903 21.9914C5.15341 21.9914 4.06428 21.5403 3.26128 20.7372C2.45826 19.9343 2.00713 18.8451 2.00713 17.7094C2.00713 16.5739 2.45826 15.4847 3.26128 14.6818C4.06428 13.8787 5.15341 13.4276 6.28903 13.4276Z" fill="#4FD6CF"/>
</svg>

<svg xmlns="http://www.w3.org/2000/svg" width="24" height="24" fill="none" viewBox="0 0 24 24">
    <path fill="#4FD6CF" d="M17.708 13.428a4.282 4.282 0 0 1 .02 8.563h-.02a4.28 4.28 0 0 1-4.282-4.282c0-.114 0-.22.014-.328.007-.2.021-.392 0-.6a7.166 7.166 0 0 0-6.273-6.2c-.214-.022-.407-.015-.614-.015l-.264.007a4.282 4.282 0 1 1-.014-8.564h.014a4.28 4.28 0 0 1 4.268 4.632c-.008.221-.015.442.014.678a7.21 7.21 0 0 0 6.423 6.109c.164.014.32.007.478 0zm.07-2.855a4.282 4.282 0 1 0-.142-8.564 4.282 4.282 0 0 0 .143 8.564M6.29 13.428a4.282 4.282 0 1 1 0 8.563 4.282 4.282 0 0 1 0-8.563"/>
</svg>
